img/telegram.svg

<svg width="42" height="42" viewBox="0 0 42 42" fill="none" xmlns="http://www.w3.org/2000/svg">
<path d="M20.9998 41.9995C32.5976 41.9995 41.9995 32.5976 41.9995 20.9998C41.9995 9.40191 32.5976 0 20.9998 0C9.40191 0 0 9.40191 0 20.9998C0 32.5976 9.40191 41.9995 20.9998 41.9995Z" fill="#41B4E6"/>
<path d="M42.0002 21.0005C42.0002 20.4888 41.9809 19.9818 41.945 19.4791L33.2415 10.7759L8.75879 20.4063L18.126 29.7736L18.2489 30.2159L18.408 30.0555L18.4086 30.0562L18.2489 30.2159L28.6109 40.5778C36.4465 37.5295 42.0002 29.914 42.0002 21.0005Z" fill="#0091C8"/>
<path d="M18.9608 24.06L28.451 31.2252L33.2416 10.7759L8.75879 20.4063L16.2086 22.8738L29.8047 13.7539L18.9608 24.06Z" fill="white"/>
<path d="M16.2085 22.8738L18.2489 30.2159L18.9606 24.06L29.8046 13.7539L16.2085 22.8738Z" fill="#D2D2D7"/>
<path d="M22.0447 26.3883L18.2485 30.2155L18.9603 24.0596L22.0447 26.3883Z" fill="#B9B9BE"/>
</svg>

<svg width="42" height="42" fill="none" xmlns="http://www.w3.org/2000/svg"><path d="M21 42c11.598 0 21-9.402 21-21S32.597 0 21 0 0 9.402 0 21s9.402 21 21 21z" fill="#41B4E6"/><path d="M42 21c0-.511-.02-1.018-.055-1.52l-8.703-8.704-24.483 9.63 9.367 9.368.123.442.159-.16-.16.16 10.363 10.362C36.446 37.529 42 29.914 42 21z" fill="#0091C8"/><path d="M18.96 24.06l9.491 7.165 4.79-20.45L8.76 20.407l7.45 2.468 13.596-9.12L18.96 24.06z" fill="#fff"/><path d="M16.209 22.874l2.04 7.342.712-6.156 10.844-10.306-13.596 9.12z" fill="#D2D2D7"/><path d="M22.045 26.388l-3.797 3.827.712-6.155 3.085 2.328z" fill="#B9B9BE"/></svg>
